<?xml version="1.0" encoding="UTF-8"?>
<map version="1.10" tiledversion="1.12.1" orientation="orthogonal" renderorder="right-down" width="80" height="25" tilewidth="16" tileheight="16" infinite="0" nextlayerid="3" nextobjectid="12">
 <tileset firstgid="1" name="Terrain" tilewidth="16" tileheight="16" tilecount="242" columns="22">
  <image source="../assets/2d/Terrain/Terrain (16x16).png" width="352" height="176"/>
 </tileset>
 <tileset firstgid="243" name="objects" tilewidth="32" tileheight="32" tilecount="1" columns="0">
  <grid orientation="orthogonal" width="1" height="1"/>
  <tile id="0">
   <image source="../assets/2d/Items/Fruits/Apple_idle.png" width="32" height="32"/>
  </tile>
 </tileset>
 <tileset firstgid="244" source="exampleTerrain.tsj"/>
 <tileset firstgid="486" name="terrain02" tilewidth="300" tileheight="300" tilecount="2" columns="0">
  <grid orientation="orthogonal" width="1" height="1"/>
  <tile id="0">
   <image source="../../../Downloads/1031 (1).png" width="300" height="300"/>
  </tile>
  <tile id="1" x="0" y="0" width="64" height="64">
   <image source="../../../Downloads/1031.png" width="175" height="175"/>
  </tile>
 </tileset>
 <tileset firstgid="488" source="background02.tsx"/>
 <tileset firstgid="758" name="backgroundwithTransp01" tilewidth="16" tileheight="16" tilecount="270" columns="15">
  <image source="../../../Downloads/Dungeon Tile Set.png" trans="898989" width="240" height="288"/>
 </tileset>
 <tileset firstgid="1028" name="objects01" tilewidth="16" tileheight="16" tilecount="270" columns="15">
  <image source="../../../Downloads/Dungeon Tile Set.png" trans="898989" width="240" height="288"/>
  <tile id="191">
   <properties>
    <property name="pickup10point" value="pickup10Point"/>
    <property name="test" type="int" value="10"/>
   </properties>
  </tile>
 </tileset>
 <layer id="1" name="ground" width="80" height="25">
  <data encoding="csv">
580,580,580,580,580,580,580,580,580,580,580,580,580,580,580,580,580,580,580,580,580,580,580,580,580,580,580,580,580,580,580,580,580,580,580,580,580,580,580,580,580,580,580,580,580,580,580,580,580,580,580,580,580,580,580,580,580,580,580,580,580,580,580,580,580,580,580,580,580,580,580,580,580,580,580,580,580,580,580,580,
580,580,580,580,580,580,580,580,580,580,580,580,580,580,580,580,580,580,580,580,580,580,580,580,580,580,580,580,580,580,580,580,580,580,580,580,580,580,580,580,580,580,580,580,580,580,580,580,580,580,580,580,580,580,580,580,580,580,580,580,580,580,580,580,580,580,580,580,580,580,580,580,580,580,580,580,580,580,580,580,
580,580,580,580,580,580,580,580,580,580,580,580,580,580,580,580,580,580,580,580,580,580,580,580,580,580,580,580,580,580,580,580,580,580,580,580,580,580,580,580,580,580,580,580,580,580,580,580,580,580,580,580,580,580,580,580,580,580,580,580,580,580,580,580,580,580,580,580,580,580,580,580,580,580,580,580,580,580,580,580,
580,580,580,580,580,580,580,580,580,580,580,580,580,580,580,580,580,580,580,580,580,580,580,580,580,580,580,580,580,580,580,580,580,580,580,580,580,580,580,580,580,580,580,580,580,580,580,580,580,580,580,580,580,580,580,580,580,580,580,580,580,580,580,580,580,580,580,580,580,580,580,580,580,580,580,580,580,580,580,580,
580,580,580,580,580,580,580,580,580,580,580,580,580,580,580,580,580,580,580,580,580,580,580,580,580,580,580,580,580,580,850,580,580,580,580,580,580,580,580,580,580,580,580,580,580,580,580,580,580,580,580,580,580,580,580,580,580,580,580,580,580,580,580,580,580,580,580,580,580,580,580,580,580,580,580,580,580,580,580,580,
580,580,580,580,580,580,580,580,580,580,580,580,580,580,580,580,580,580,580,580,580,580,580,580,580,580,580,580,580,580,850,580,580,580,580,580,580,580,580,580,580,580,580,580,580,580,580,580,580,580,580,580,580,580,580,580,580,580,580,580,580,580,580,580,580,580,580,580,580,580,580,580,580,580,580,580,580,580,580,580,
580,580,580,580,580,580,580,580,580,580,580,580,580,580,580,580,580,580,580,580,580,580,580,580,580,580,580,580,580,580,580,580,580,580,580,580,580,580,580,580,580,580,580,580,580,580,580,580,580,580,580,580,580,580,580,580,580,580,580,580,580,580,580,580,580,580,580,580,580,580,580,580,580,580,580,580,580,580,580,580,
580,580,580,580,580,580,580,580,580,580,580,580,580,580,580,580,580,580,580,580,580,580,580,580,588,589,590,580,580,580,580,580,580,580,580,580,580,580,580,580,580,580,580,580,580,580,580,580,580,580,580,580,580,580,580,580,580,580,580,580,580,580,580,580,580,580,580,580,580,580,580,580,580,580,580,580,580,580,580,580,
580,580,580,580,580,580,580,580,580,580,580,580,580,580,580,580,580,580,580,580,580,580,580,580,603,604,605,580,580,580,580,504,505,523,580,580,580,580,580,580,580,580,580,580,580,580,580,580,580,580,580,580,580,580,580,580,580,580,580,580,580,580,580,580,580,580,580,580,580,580,580,580,580,580,580,580,580,580,580,580,
580,580,580,580,580,580,580,580,580,580,580,580,580,580,580,580,580,580,604,580,580,580,580,580,580,580,580,580,580,678,580,519,580,580,580,580,580,580,580,580,580,580,580,580,580,580,580,580,580,580,580,580,580,580,580,580,580,580,580,580,580,580,580,580,580,580,580,580,580,580,580,580,580,580,580,580,580,580,580,580,
580,580,580,580,580,580,580,580,513,514,580,530,580,580,580,580,580,580,580,513,514,580,580,580,580,580,580,580,580,895,896,519,580,580,580,580,580,580,580,580,580,580,580,580,580,580,580,580,580,580,580,580,580,580,580,580,580,580,580,580,580,580,580,580,580,580,580,580,580,580,580,580,580,580,580,521,580,1219,580,580,
580,580,580,580,580,580,580,580,528,529,580,580,580,580,590,580,580,580,580,528,529,580,580,604,580,580,580,580,580,580,911,519,580,580,580,580,580,580,580,580,580,580,580,580,580,580,580,539,535,535,535,865,535,535,865,535,535,535,865,538,580,580,580,580,580,580,580,580,580,580,580,580,580,580,580,521,894,895,580,580,
580,580,580,580,580,580,580,580,580,580,580,580,543,544,580,580,580,580,580,580,580,580,580,580,580,580,580,587,588,589,580,579,580,580,580,580,580,580,580,580,580,580,580,580,580,580,580,521,580,580,580,580,580,580,580,580,580,978,979,519,580,580,580,580,580,580,580,580,580,580,580,580,580,580,580,521,909,580,580,580,
580,580,580,580,580,580,580,580,580,580,580,580,558,559,580,580,580,580,580,580,580,580,580,580,580,580,580,602,603,604,580,519,580,580,580,790,580,580,580,580,580,580,580,580,580,580,580,521,580,580,580,580,580,580,580,859,580,580,580,519,580,580,580,580,580,580,580,580,580,580,580,580,580,580,580,581,800,801,580,580,
580,580,580,580,580,580,580,580,580,580,580,588,580,580,580,580,580,580,580,580,580,648,580,580,580,580,633,580,580,580,925,519,580,580,580,580,580,580,580,580,580,580,580,580,580,580,580,521,580,580,635,580,580,580,580,580,580,580,580,519,580,580,580,580,580,580,580,580,580,580,580,580,580,580,580,521,580,813,814,580,
580,580,580,580,580,580,580,580,580,580,580,580,580,580,580,580,580,580,580,580,508,565,505,505,505,505,505,566,580,580,580,519,580,580,580,580,580,580,580,580,580,580,580,580,580,580,580,838,775,505,505,565,505,505,566,909,910,910,911,579,580,580,580,580,580,580,580,580,580,580,580,580,580,580,580,521,580,828,829,845,
580,580,580,580,580,580,580,580,580,580,580,580,580,580,580,580,580,678,580,508,523,580,580,580,580,580,580,580,580,580,580,594,535,535,535,535,535,535,535,595,535,535,535,538,580,580,580,580,580,580,580,580,580,580,521,580,580,580,580,519,580,580,580,539,535,535,595,535,535,535,535,535,535,535,535,596,580,580,580,860,
580,580,580,580,580,564,505,505,580,580,580,580,580,564,898,504,505,505,505,523,580,580,590,580,580,580,580,580,580,580,580,921,580,580,580,575,580,939,942,943,944,940,941,519,580,580,580,580,580,580,580,580,580,580,581,909,910,910,911,579,580,580,580,521,580,940,580,946,580,783,784,580,580,860,580,920,580,580,580,580,
580,580,580,580,580,580,939,940,580,580,580,580,580,580,898,580,580,580,580,580,580,580,580,580,580,580,580,580,580,580,580,936,957,958,959,580,580,580,589,580,580,955,580,519,580,580,580,580,580,580,580,580,580,580,521,580,830,859,580,519,580,580,580,521,580,955,580,961,580,798,799,580,580,580,580,935,580,520,1219,580,
580,580,580,580,580,580,580,955,580,580,580,580,580,580,898,580,580,580,580,580,580,580,580,580,580,580,580,778,505,505,505,565,505,505,505,779,580,580,580,513,514,580,580,519,580,580,580,580,580,580,580,580,580,580,521,580,580,580,580,519,580,580,580,521,580,875,580,520,520,520,520,508,505,505,505,565,505,505,505,505,
580,580,580,580,580,580,580,580,580,580,580,580,580,580,898,580,580,580,580,580,580,580,580,580,580,580,778,523,511,571,571,580,580,584,585,524,779,580,580,528,529,580,590,594,535,535,535,535,535,595,535,535,535,535,596,909,910,910,911,594,535,535,535,596,580,520,520,858,580,580,778,793,874,580,860,580,873,580,580,785,
580,580,580,580,580,580,580,580,948,679,580,580,580,520,928,520,580,580,580,580,580,580,580,580,580,778,523,580,580,580,580,580,580,599,600,580,524,779,580,580,580,580,580,580,580,580,580,580,580,859,580,580,580,580,580,874,580,580,580,580,580,580,580,580,520,873,580,580,580,778,793,873,580,580,580,580,785,580,580,580,
505,505,505,505,505,505,505,505,505,505,505,505,505,505,566,900,900,900,900,900,900,900,900,564,505,523,584,585,580,580,580,580,580,580,580,580,580,524,779,580,580,678,580,580,580,580,873,580,580,580,580,580,957,958,959,580,580,580,520,520,580,580,580,580,520,918,580,580,778,793,874,580,580,580,873,580,580,856,857,580,
580,580,580,580,580,580,580,580,580,580,580,580,580,580,521,580,580,580,580,580,580,580,580,519,580,580,599,600,580,580,580,580,580,580,580,580,580,580,524,505,505,505,505,505,505,505,505,505,505,505,505,505,505,505,505,505,505,505,505,505,505,505,505,505,505,505,505,505,797,874,580,580,580,580,580,580,580,580,580,580,
580,580,580,580,580,580,580,580,580,580,580,580,580,580,521,969,971,972,972,971,703,970,970,519,580,580,580,580,580,580,580,580,580,580,580,580,580,580,580,580,580,580,580,580,580,580,580,580,580,580,580,580,580,580,580,580,580,580,580,580,580,580,580,580,580,580,580,580,580,580,580,580,580,580,580,580,580,580,580,580
</data>
 </layer>
 <objectgroup id="2" name="spawnpoints">
  <object id="1" name="player" type="spawn" x="56" y="352">
   <point/>
  </object>
  <object id="5" gid="1219" x="370.5" y="224.5" width="16" height="16"/>
  <object id="6" gid="1219" x="143.5" y="352.5" width="16" height="16"/>
  <object id="7" gid="1219" x="109.5" y="270.5" width="16" height="16"/>
  <object id="8" gid="1219" x="673" y="364" width="16" height="16"/>
  <object id="9" gid="1219" x="784" y="239" width="16" height="16"/>
  <object id="10" gid="1219" x="960" y="366.5" width="16" height="16"/>
 </objectgroup>
</map>
